svgs/thin/helicopter.svg

<svg xmlns="http://www.w3.org/2000/svg" viewBox="0 0 640 512"><!--! Font Awesome Pro 6.0.0-alpha3 by @fontawesome - https://fontawesome.com License - https://fontawesome.com/license (Commercial License) --><path d="M303.1 384h271.1C593.7 384 608 369.7 608 352c0-123.7-100.3-224-224-224H360V16h208C572.4 16 576 12.41 576 8S572.4 0 568 0H136C131.6 0 128 3.594 128 8S131.6 16 136 16h208V128H107.5L64.32 70.4C61.29 66.37 56.55 64 51.52 64H15.99C5.578 64-2.043 73.78 .48 83.88l23.07 92.25C26.04 186.1 33.17 194.3 42.71 198.1L191.1 256l86.38 115.2C284.4 379.3 293.9 384 303.1 384zM416 146.7C515.5 162.2 592 248.2 592 352c0 8.824-7.176 16-16 16h-160V146.7zM202.1 242.7L48.65 183.2c-4.754-1.902-8.336-6.008-9.578-10.98L16.01 80h35.51l48 64c0 0 295.2 .4062 300.5 .8125V368h-96c-5.012 0-9.797-2.391-12.8-6.402L202.1 242.7zM632 432c-4.406 0-8 3.594-8 8c0 30.88-25.12 56-56 56H232C227.6 496 224 499.6 224 504S227.6 512 232 512h336c39.69 0 72-32.31 72-72C640 435.6 636.4 432 632 432z"/></svg>

<svg xmlns="http://www.w3.org/2000/svg" viewBox="0 0 640 512"><!-- Font Awesome Pro 6.0.0-alpha2 by @fontawesome - https://fontawesome.com License - https://fontawesome.com/license (Commercial License) --><path d="M304.001 384H576.001C593.673 384 608.001 369.672 608.001 352C608.001 228.289 507.712 128 384.001 128H360.001V16H568.001C572.407 16 576.001 12.406 576.001 8S572.407 0 568.001 0H136.001C131.595 0 128.001 3.594 128.001 8S131.595 16 136.001 16H344.001V128H107.517L64.317 70.398C61.294 66.371 56.552 64 51.517 64H16.009C5.599 64 -2.038 73.781 0.485 83.879L23.548 176.125C26.04 186.094 33.169 194.262 42.708 198.078L192.001 256L278.399 371.199C284.442 379.258 293.931 384 304.001 384ZM416.001 146.723C515.517 162.195 592.001 248.219 592.001 352C592.001 360.824 584.825 368 576.001 368H416.001V146.723ZM202.056 242.738L197.79 241.082L48.649 183.223C43.895 181.32 40.313 177.215 39.071 172.246L16.009 80H51.517L94.716 137.602L99.517 144H384.001C389.399 144 394.704 144.406 400.001 144.812V368H304.001C298.989 368 294.204 365.609 291.2 361.598L204.802 246.398L202.056 242.738ZM632.001 432C627.595 432 624.001 435.594 624.001 440C624.001 470.875 598.876 496 568.001 496H232.001C227.595 496 224.001 499.594 224.001 504S227.595 512 232.001 512H568.001C607.688 512 640.001 479.688 640.001 440C640.001 435.594 636.407 432 632.001 432Z"/></svg>
